flaticon/emoticons/gentleman-4.svg

<svg xmlns="http://www.w3.org/2000/svg" width="32" height="32" viewBox="0 0 24 24">
    <path d="M 7.949219 12.546875 C 9.183594 12.546875 10.269531 11.921875 10.914062 10.972656 C 11.664062 12.5 13.230469 13.558594 15.042969 13.558594 C 17.578125 13.558594 19.640625 11.496094 19.640625 8.960938 C 19.640625 6.425781 17.578125 4.363281 15.042969 4.363281 C 13.230469 4.363281 11.664062 5.417969 10.914062 6.949219 C 10.269531 6 9.183594 5.375 7.949219 5.375 C 5.972656 5.375 4.367188 6.984375 4.367188 8.960938 C 4.367188 10.9375 5.972656 12.546875 7.949219 12.546875 Z M 7.949219 11.457031 C 6.574219 11.457031 5.457031 10.335938 5.457031 8.960938 C 5.457031 8.878906 5.472656 8.804688 5.480469 8.726562 L 10.421875 8.726562 C 10.429688 8.804688 10.445312 8.878906 10.445312 8.960938 C 10.445312 10.335938 9.328125 11.457031 7.949219 11.457031 Z M 15.042969 12.46875 C 13.109375 12.46875 11.535156 10.894531 11.535156 8.960938 C 11.535156 8.882812 11.542969 8.804688 11.546875 8.726562 L 18.539062 8.726562 C 18.546875 8.804688 18.550781 8.882812 18.550781 8.960938 C 18.550781 10.894531 16.976562 12.46875 15.042969 12.46875 Z M 15.042969 5.453125 C 16.507812 5.453125 17.765625 6.355469 18.289062 7.632812 L 11.796875 7.632812 C 12.324219 6.355469 13.578125 5.453125 15.042969 5.453125 Z M 7.949219 6.46875 C 8.839844 6.46875 9.613281 6.933594 10.054688 7.636719 L 5.847656 7.636719 C 6.289062 6.933594 7.066406 6.46875 7.949219 6.46875 Z M 7.949219 6.46875"/>
    <path d="M9.195312 9.972656C9.195312 10.253906 8.96875 10.480469 8.691406 10.480469 8.410156 10.480469 8.183594 10.253906 8.183594 9.972656 8.183594 9.695312 8.410156 9.46875 8.691406 9.46875 8.96875 9.46875 9.195312 9.695312 9.195312 9.972656zM17.335938 10.226562C17.335938 10.648438 16.996094 10.988281 16.578125 10.988281 16.15625 10.988281 15.816406 10.648438 15.816406 10.226562 15.816406 9.808594 16.15625 9.46875 16.578125 9.46875 16.996094 9.46875 17.335938 9.808594 17.335938 10.226562zM17.335938 10.226562"/>
    <path d="M 23.875 20.925781 C 23.691406 20.691406 23.355469 20.652344 23.117188 20.832031 C 22.871094 21.023438 22.632812 21.097656 22.375 21.058594 C 21.910156 20.996094 21.394531 20.601562 20.875 20.058594 C 23 17.71875 24.105469 14.699219 23.988281 11.542969 C 23.738281 4.933594 18.164062 -0.25 11.546875 0.0078125 C 8.347656 0.128906 5.382812 1.492188 3.203125 3.839844 C 1.023438 6.191406 -0.109375 9.246094 0.0117188 12.449219 C 0.125 15.425781 1.316406 18.175781 3.371094 20.300781 C 2.953125 20.714844 2.542969 21.007812 2.160156 21.0625 C 1.910156 21.097656 1.675781 21.027344 1.425781 20.832031 C 1.191406 20.652344 0.855469 20.691406 0.667969 20.925781 C 0.484375 21.15625 0.515625 21.492188 0.742188 21.683594 C 2.136719 22.855469 4.0625 23.199219 6.433594 22.730469 C 6.476562 22.863281 6.570312 22.980469 6.703125 23.046875 C 8.03125 23.691406 9.613281 24 11.632812 24 C 11.898438 24 12.171875 23.996094 12.453125 23.984375 C 14.175781 23.917969 16.164062 23.707031 17.9375 22.707031 C 18.625 22.847656 19.320312 22.9375 20.003906 22.9375 C 21.386719 22.9375 22.714844 22.59375 23.800781 21.683594 C 24.027344 21.492188 24.0625 21.15625 23.875 20.925781 Z M 1.101562 12.40625 C 0.875 6.398438 5.578125 1.324219 11.589844 1.097656 C 11.726562 1.09375 11.867188 1.089844 12.003906 1.089844 C 17.828125 1.089844 22.675781 5.714844 22.898438 11.585938 C 23 14.269531 22.128906 16.84375 20.433594 18.910156 C 20.085938 18.515625 19.742188 18.09375 19.40625 17.683594 C 18.796875 16.933594 18.21875 16.226562 17.636719 15.683594 C 15.785156 14.074219 14.390625 14.285156 13.507812 14.796875 C 13.078125 15.003906 12.75 15.289062 12.542969 15.511719 C 12.476562 15.582031 12.382812 15.621094 12.285156 15.640625 C 12.171875 15.636719 12.0625 15.59375 11.980469 15.515625 C 11.746094 15.28125 11.359375 14.976562 10.855469 14.789062 C 9.949219 14.371094 8.597656 14.3125 6.890625 15.914062 C 6.316406 16.492188 5.753906 17.261719 5.164062 18.074219 C 4.820312 18.546875 4.460938 19.039062 4.097656 19.484375 C 2.265625 17.5625 1.203125 15.085938 1.101562 12.40625 Z M 12.410156 22.894531 C 10.886719 22.953125 9.632812 22.847656 8.5625 22.570312 C 9.515625 22.164062 10.390625 21.664062 11.089844 21.261719 C 11.261719 21.160156 11.425781 21.066406 11.574219 20.984375 C 11.8125 20.851562 12.074219 20.78125 12.335938 20.75 C 12.621094 20.765625 12.898438 20.832031 13.15625 20.960938 C 14.011719 21.398438 15.097656 21.890625 16.28125 22.273438 C 15 22.726562 13.636719 22.847656 12.410156 22.894531 Z M 17.804688 21.574219 C 17.75 21.5625 17.695312 21.550781 17.640625 21.535156 C 17.574219 21.519531 17.503906 21.5 17.433594 21.480469 C 16.46875 21.207031 15.554688 20.734375 14.796875 20.34375 C 14.492188 20.1875 14.207031 20.039062 13.953125 19.921875 C 13.429688 19.679688 12.855469 19.59375 12.289062 19.648438 C 12.261719 19.648438 12.230469 19.640625 12.199219 19.640625 C 11.699219 19.640625 11.199219 19.757812 10.742188 19.992188 C 8.496094 21.136719 5.621094 22.207031 3.332031 21.738281 C 3.621094 21.550781 3.898438 21.308594 4.175781 21.035156 C 4.242188 21.066406 4.3125 21.085938 4.386719 21.085938 C 4.398438 21.085938 4.414062 21.082031 4.425781 21.082031 C 4.570312 21.074219 4.707031 21.003906 4.800781 20.894531 C 5.332031 20.277344 5.84375 19.546875 6.335938 18.835938 C 6.867188 18.078125 7.367188 17.363281 7.832031 16.859375 C 8.789062 15.886719 9.640625 15.535156 10.410156 15.785156 C 10.636719 15.890625 10.851562 16.046875 11.058594 16.261719 C 11.355469 16.574219 11.769531 16.75 12.199219 16.75 C 12.242188 16.75 12.285156 16.742188 12.332031 16.738281 C 12.347656 16.738281 12.363281 16.742188 12.378906 16.738281 C 12.808594 16.722656 13.214844 16.527344 13.496094 16.207031 C 13.683594 15.996094 13.882812 15.84375 14.085938 15.726562 C 14.855469 15.417969 15.730469 15.734375 16.734375 16.675781 C 17.234375 17.179688 17.769531 17.890625 18.332031 18.640625 C 19.242188 19.859375 20.179688 21.109375 21.191406 21.742188 C 20.128906 21.957031 18.953125 21.84375 17.804688 21.574219 Z M 17.804688 21.574219"/>
</svg>

<svg xmlns="http://www.w3.org/2000/svg" width="32" height="32" viewBox="0 0 24 24">
    <path d="M7.95 12.547c1.234 0 2.32-.625 2.964-1.574a4.605 4.605 0 0 0 4.129 2.586 4.603 4.603 0 0 0 4.598-4.598 4.603 4.603 0 0 0-4.598-4.598 4.598 4.598 0 0 0-4.129 2.586A3.577 3.577 0 0 0 7.95 5.375a3.588 3.588 0 0 0-3.582 3.586 3.588 3.588 0 0 0 3.582 3.586zm0-1.09a2.497 2.497 0 0 1-2.493-2.496c0-.082.016-.156.023-.234h4.942c.008.078.023.152.023.234a2.498 2.498 0 0 1-2.496 2.496zm7.093 1.012a3.513 3.513 0 0 1-3.508-3.508c0-.078.008-.156.012-.234h6.992c.008.078.012.156.012.234a3.513 3.513 0 0 1-3.508 3.508zm0-7.016c1.465 0 2.723.902 3.246 2.18h-6.492a3.515 3.515 0 0 1 3.246-2.18zM7.949 6.47c.89 0 1.664.465 2.106 1.168H5.848a2.48 2.48 0 0 1 2.101-1.168zm0 0"/>
    <path d="M9.195 9.973a.506.506 0 1 1-1.012.003.506.506 0 0 1 1.012-.003zm0 0M17.336 10.227a.76.76 0 1 1-1.519.004.76.76 0 0 1 1.519-.004zm0 0"/>
    <path d="M23.875 20.926a.544.544 0 0 0-.758-.094c-.246.191-.484.266-.742.227-.465-.063-.98-.457-1.5-1a11.931 11.931 0 0 0 3.113-8.516C23.738 4.933 18.164-.25 11.547.008A11.934 11.934 0 0 0 3.203 3.84a11.915 11.915 0 0 0-3.191 8.61 11.866 11.866 0 0 0 3.36 7.85c-.419.415-.829.708-1.212.762-.25.036-.484-.035-.734-.23a.546.546 0 0 0-.684.852c1.395 1.171 3.32 1.515 5.692 1.046.043.133.136.25.27.317 1.327.644 2.91.953 4.929.953.265 0 .539-.004.82-.016 1.723-.066 3.711-.277 5.485-1.277.687.14 1.382.23 2.066.23 1.383 0 2.71-.343 3.797-1.253a.543.543 0 0 0 .074-.758zm-22.773-8.52C.875 6.398 5.578 1.324 11.59 1.098c.137-.004.277-.008.414-.008 5.824 0 10.672 4.625 10.894 10.496a10.834 10.834 0 0 1-2.464 7.324c-.348-.394-.692-.816-1.028-1.226-.61-.75-1.187-1.457-1.77-2-1.85-1.61-3.245-1.399-4.128-.887-.43.207-.758.492-.965.715a.477.477 0 0 1-.258.129.464.464 0 0 1-.305-.125 3.216 3.216 0 0 0-1.125-.727c-.906-.418-2.257-.476-3.964 1.125-.575.578-1.137 1.348-1.727 2.16-.344.473-.703.965-1.066 1.41a10.779 10.779 0 0 1-2.996-7.078zM12.41 22.895c-1.523.058-2.777-.047-3.848-.325.954-.406 1.829-.906 2.528-1.308.172-.102.336-.196.484-.278.239-.132.5-.203.762-.234.285.016.562.082.82.21.856.438 1.942.93 3.125 1.313-1.281.454-2.644.575-3.87.622zm5.395-1.32c-.055-.012-.11-.024-.164-.04a5.499 5.499 0 0 1-.207-.055c-.965-.273-1.88-.746-2.637-1.136-.305-.157-.59-.305-.844-.422a3.217 3.217 0 0 0-1.664-.274c-.027 0-.059-.007-.09-.007-.5 0-1 .117-1.457.351-2.246 1.145-5.12 2.215-7.41 1.746.29-.187.566-.43.844-.703.066.031.136.05.21.05l.04-.003a.537.537 0 0 0 .375-.187c.531-.618 1.043-1.348 1.535-2.06.531-.757 1.031-1.472 1.496-1.976.957-.972 1.809-1.324 2.578-1.074.227.106.442.262.649.477.296.312.71.488 1.14.488.043 0 .086-.008.133-.012.016 0 .031.004.047 0 .43-.015.836-.21 1.117-.531.188-.21.387-.363.59-.48.77-.309 1.644.007 2.648.949.5.504 1.036 1.215 1.598 1.965.91 1.218 1.848 2.468 2.86 3.101-1.063.215-2.239.102-3.387-.168zm0 0"/>
</svg>
